rospo-icon-theme-classic-common/24x24/devices/network-server-database.svg

<svg height="24" viewBox="0 0 24 24" width="24" xmlns="http://www.w3.org/2000/svg"><rect height="20" opacity=".2" rx="1" transform="matrix(0 -1 -1 0 0 0)" width="6" x="-21.5" y="-22"/><rect fill="#8e8e8e" height="20" rx="1" transform="matrix(0 -1 -1 0 0 0)" width="6" x="-21" y="-22"/><g stroke="#000" stroke-linecap="round"><path d="m8.5 16.5-1 3" opacity=".5"/><path d="m6.5 16.5-1 3" opacity=".5"/><path d="m4.5 16.5-1 3" opacity=".5"/><path d="m10.5 16.5-1 3" opacity=".5"/></g><circle cx="15" cy="17.5" opacity=".2" r="1"/><circle cx="17.5" cy="17.5" opacity=".2" r="1"/><circle cx="20" cy="17.5" opacity=".2" r="1"/><circle cx="15" cy="17" fill="#76ff03" r="1"/><circle cx="17.5" cy="17" fill="#ff0" r="1"/><circle cx="20" cy="17" fill="#ffcd40" r="1"/><rect height="20" opacity=".2" rx="1" transform="matrix(0 -1 -1 0 0 0)" width="6" x="-15.5" y="-22"/><rect fill="#8e8e8e" height="20" rx="1" transform="matrix(0 -1 -1 0 0 0)" width="6" x="-15" y="-22"/><g stroke="#000" stroke-linecap="round"><path d="m8.5 10.5-1 3" opacity=".5"/><path d="m6.5 10.5-1 3" opacity=".5"/><path d="m4.5 10.5-1 3" opacity=".5"/><path d="m10.5 10.5-1 3" opacity=".5"/></g><circle cx="15" cy="11.5" opacity=".2" r="1"/><circle cx="17.5" cy="11.5" opacity=".2" r="1"/><circle cx="20" cy="11.5" opacity=".2" r="1"/><circle cx="15" cy="11" fill="#76ff03" r="1"/><circle cx="17.5" cy="11" fill="#ff0" r="1"/><circle cx="20" cy="11" fill="#ffcd40" r="1"/><rect height="20" opacity=".2" rx="1" transform="matrix(0 -1 -1 0 0 0)" width="6" x="-9.5" y="-22"/><rect fill="#8e8e8e" height="20" rx="1" transform="matrix(0 -1 -1 0 0 0)" width="6" x="-9" y="-22"/><g stroke="#000" stroke-linecap="round"><path d="m8.5 4.5-1 3" opacity=".5"/><path d="m6.5 4.5-1 3" opacity=".5"/><path d="m4.5 4.5-1 3" opacity=".5"/><path d="m10.5 4.5-1 3" opacity=".5"/></g><circle cx="15" cy="5.5" opacity=".2" r="1"/><circle cx="17.5" cy="5.5" opacity=".2" r="1"/><circle cx="20" cy="5.5" opacity=".2" r="1"/><circle cx="15" cy="5" fill="#76ff03" r="1"/><circle cx="17.5" cy="5" fill="#ff0" r="1"/><circle cx="20" cy="5" fill="#ffcd40" r="1"/><path d="m3 3c-.554 0-1 .446-1 1v .5c0-.554.446-1 1-1h18c .554 0 1 .446 1 1v-.5c0-.554-.446-1-1-1z" fill="#fff" opacity=".2"/></svg>

<svg xmlns="http://www.w3.org/2000/svg" width="24" height="24" version="1.1" viewBox="0 0 24 24">
 <g>
  <rect style="opacity:0.2" width="6" height="20" x="-21.5" y="-22" rx="1" ry="1" transform="matrix(0,-1,-1,0,0,0)"/>
  <rect style="fill:#8e8e8e" width="6" height="20" x="-21" y="-22" rx="1" ry="1" transform="matrix(0,-1,-1,0,0,0)"/>
  <path style="opacity:0.5;stroke:#000000;stroke-linecap:round" d="M 8.5,16.5 7.5,19.5"/>
  <path style="opacity:0.5;stroke:#000000;stroke-linecap:round" d="M 6.5,16.5 5.5,19.5"/>
  <path style="opacity:0.5;stroke:#000000;stroke-linecap:round" d="M 4.5,16.5 3.5,19.5"/>
  <path style="opacity:0.5;stroke:#000000;stroke-linecap:round" d="M 10.5,16.5 9.5,19.5"/>
  <circle style="opacity:0.2" cx="15" cy="17.5" r="1"/>
  <circle style="opacity:0.2" cx="17.5" cy="17.5" r="1"/>
  <circle style="opacity:0.2" cx="20" cy="17.5" r="1"/>
  <circle style="fill:#76ff03" cx="15" cy="17" r="1"/>
  <circle style="fill:#ffff00" cx="17.5" cy="17" r="1"/>
  <circle style="fill:#ffcd40" cx="20" cy="17" r="1"/>
 </g>
 <g>
  <rect style="opacity:0.2" width="6" height="20" x="-15.5" y="-22" rx="1" ry="1" transform="matrix(0,-1,-1,0,0,0)"/>
  <rect style="fill:#8e8e8e" width="6" height="20" x="-15" y="-22" rx="1" ry="1" transform="matrix(0,-1,-1,0,0,0)"/>
  <path style="opacity:0.5;stroke:#000000;stroke-linecap:round" d="M 8.5,10.5 7.5,13.5"/>
  <path style="opacity:0.5;stroke:#000000;stroke-linecap:round" d="M 6.5,10.5 5.5,13.5"/>
  <path style="opacity:0.5;stroke:#000000;stroke-linecap:round" d="M 4.5,10.5 3.5,13.5"/>
  <path style="opacity:0.5;stroke:#000000;stroke-linecap:round" d="M 10.5,10.5 9.5,13.5"/>
  <circle style="opacity:0.2" cx="15" cy="11.5" r="1"/>
  <circle style="opacity:0.2" cx="17.5" cy="11.5" r="1"/>
  <circle style="opacity:0.2" cx="20" cy="11.5" r="1"/>
  <circle style="fill:#76ff03" cx="15" cy="11" r="1"/>
  <circle style="fill:#ffff00" cx="17.5" cy="11" r="1"/>
  <circle style="fill:#ffcd40" cx="20" cy="11" r="1"/>
 </g>
 <g>
  <rect style="opacity:0.2" width="6" height="20" x="-9.5" y="-22" rx="1" ry="1" transform="matrix(0,-1,-1,0,0,0)"/>
  <rect style="fill:#8e8e8e" width="6" height="20" x="-9" y="-22" rx="1" ry="1" transform="matrix(0,-1,-1,0,0,0)"/>
  <path style="opacity:0.5;stroke:#000000;stroke-linecap:round" d="M 8.5,4.5 7.5,7.5"/>
  <path style="opacity:0.5;stroke:#000000;stroke-linecap:round" d="M 6.5,4.5 5.5,7.5"/>
  <path style="opacity:0.5;stroke:#000000;stroke-linecap:round" d="M 4.5,4.5 3.5,7.5"/>
  <path style="opacity:0.5;stroke:#000000;stroke-linecap:round" d="M 10.5,4.5 9.5,7.5"/>
  <circle style="opacity:0.2" cx="15" cy="5.5" r="1"/>
  <circle style="opacity:0.2" cx="17.5" cy="5.5" r="1"/>
  <circle style="opacity:0.2" cx="20" cy="5.5" r="1"/>
  <circle style="fill:#76ff03" cx="15" cy="5" r="1"/>
  <circle style="fill:#ffff00" cx="17.5" cy="5" r="1"/>
  <circle style="fill:#ffcd40" cx="20" cy="5" r="1"/>
  <path style="opacity:0.2;fill:#ffffff" d="M 3,3 C 2.446,3 2,3.446 2,4 V 4.5 C 2,3.946 2.446,3.5 3,3.5 H 21 C 21.554,3.5 22,3.946 22,4.5 V 4 C 22,3.446 21.554,3 21,3 Z"/>
 </g>
</svg>
